X: 3
T: The Frost Is All Over
R: jig
M: 6/8
L: 1/8
K: Dmaj
A|def fed|BdB AFD|DFA B2A|cee e2A|def fed|BdB AFD|DFA B2A|Add d2:||:e|fga agf|gab bag|fga agf|gfg e2g|fga agf|gab bag|fga efg|fdd d2:||


Tune 448	Setting 26401

